icons/src/scalable/mimetypes/x-office-calendar-symbolic.svg

<?xml version="1.0" encoding="UTF-8" standalone="no"?>
<svg
   xmlns:dc="http://purl.org/dc/elements/1.1/"
   xmlns:cc="http://creativecommons.org/ns#"
   xmlns:rdf="http://www.w3.org/1999/02/22-rdf-syntax-ns#"
   xmlns:svg="http://www.w3.org/2000/svg"
   xmlns="http://www.w3.org/2000/svg"
   xmlns:sodipodi="http://sodipodi.sourceforge.net/DTD/sodipodi-0.dtd"
   xmlns:inkscape="http://www.inkscape.org/namespaces/inkscape"
   height="16"
   width="16"
   version="1.1"
   id="svg4"
   sodipodi:docname="x-office-calendar-symbolic.svg"
   inkscape:version="0.92.3 (2405546, 2018-03-11)">
  <metadata
     id="metadata10">
    <rdf:RDF>
      <cc:Work
         rdf:about="">
        <dc:format>image/svg+xml</dc:format>
        <dc:type
           rdf:resource="http://purl.org/dc/dcmitype/StillImage" />
      </cc:Work>
    </rdf:RDF>
  </metadata>
  <defs
     id="defs8">
    <clipPath
       clipPathUnits="userSpaceOnUse"
       id="clipPath1158">
      <circle
         style="display:inline;fill:#ffe680;fill-opacity:1;stroke:none;stroke-width:2.74049902;stroke-miterlimit:4;stroke-dasharray:none;stroke-opacity:1"
         id="circle1160"
         cx="124"
         cy="128"
         r="124" />
    </clipPath>
    <clipPath
       clipPathUnits="userSpaceOnUse"
       id="clipPath1155">
      <circle
         style="display:inline;fill:#003059;fill-opacity:1;stroke:none;stroke-width:2.74049902;stroke-miterlimit:4;stroke-dasharray:none;stroke-opacity:1"
         id="circle1157"
         cx="-331.61942"
         cy="199.17514"
         r="124" />
    </clipPath>
    <clipPath
       clipPathUnits="userSpaceOnUse"
       id="clipPath1155-6">
      <circle
         style="display:inline;fill:#003059;fill-opacity:1;stroke:none;stroke-width:2.74049902;stroke-miterlimit:4;stroke-dasharray:none;stroke-opacity:1"
         id="circle1157-2"
         cx="-331.61942"
         cy="199.17514"
         r="124" />
    </clipPath>
    <clipPath
       clipPathUnits="userSpaceOnUse"
       id="clipPath1155-1">
      <circle
         style="display:inline;fill:#003059;fill-opacity:1;stroke:none;stroke-width:2.74049902;stroke-miterlimit:4;stroke-dasharray:none;stroke-opacity:1"
         id="circle1157-27"
         cx="-331.61942"
         cy="199.17514"
         r="124" />
    </clipPath>
    <clipPath
       clipPathUnits="userSpaceOnUse"
       id="clipPath1155-9">
      <circle
         style="display:inline;fill:#003059;fill-opacity:1;stroke:none;stroke-width:2.74049902;stroke-miterlimit:4;stroke-dasharray:none;stroke-opacity:1"
         id="circle1157-3"
         cx="-331.61942"
         cy="199.17514"
         r="124" />
    </clipPath>
    <clipPath
       clipPathUnits="userSpaceOnUse"
       id="clipPath1158-1">
      <circle
         style="display:inline;fill:#ffe680;fill-opacity:1;stroke:none;stroke-width:2.74049902;stroke-miterlimit:4;stroke-dasharray:none;stroke-opacity:1"
         id="circle1160-8"
         cx="124"
         cy="128"
         r="124" />
    </clipPath>
    <clipPath
       clipPathUnits="userSpaceOnUse"
       id="clipPath1158-1-2">
      <circle
         style="display:inline;fill:#ffe680;fill-opacity:1;stroke:none;stroke-width:2.74049902;stroke-miterlimit:4;stroke-dasharray:none;stroke-opacity:1"
         id="circle1160-8-0"
         cx="124"
         cy="128"
         r="124" />
    </clipPath>
  </defs>
  <sodipodi:namedview
     pagecolor="#ffffff"
     bordercolor="#666666"
     borderopacity="1"
     objecttolerance="10"
     gridtolerance="10"
     guidetolerance="10"
     inkscape:pageopacity="0"
     inkscape:pageshadow="2"
     inkscape:window-width="1920"
     inkscape:window-height="1539"
     id="namedview6"
     showgrid="false"
     inkscape:zoom="41.7193"
     inkscape:cx="9.8668849"
     inkscape:cy="5.2303299"
     inkscape:window-x="1920"
     inkscape:window-y="27"
     inkscape:window-maximized="0"
     inkscape:current-layer="svg4" />
  <g
     id="g829">
    <path
       id="path1090"
       d="M 8,0 A 8,8 0 0 0 0.29296875,5.8554688 h 0.3515625 v 4.2890622 h -0.34375 A 8,8 0 0 0 8,16 8,8 0 0 0 15.707031,10.144531 H 15.355469 V 5.8554688 h 0.34375 A 8,8 0 0 0 8,0 Z M 5.390625,4.9199219 c 0.6193548,0 1.0930402,0.1633527 1.4199219,0.4902343 0.3326164,0.321147 0.4980469,0.7723511 0.4980469,1.3515626 -10e-8,0.3899641 -0.1082508,0.7860663 -0.3261719,1.1875 C 6.7645007,8.3449176 6.5010836,8.7145077 6.1914062,9.0585938 5.8817289,9.4026796 5.4835489,9.8130774 4.9960938,10.289062 h 2.4160156 l -0.033203,0.695313 H 3.6542969 V 10.693359 C 3.774727,10.567195 3.9727781,10.371221 4.2480469,10.107422 4.7068282,9.66011 5.0805738,9.2762251 5.3730469,8.9550781 5.66552,8.6339312 5.9165953,8.2868223 6.1230469,7.9140625 6.3352332,7.5355679 6.4414063,7.1619469 6.4414062,6.7949219 6.4414063,6.4336316 6.3393887,6.149811 6.1386719,5.9433594 5.937955,5.7369078 5.6642739,5.6347656 5.3144531,5.6347656 c -0.4530465,0 -0.9063284,0.1776476 -1.359375,0.5332032 L 3.6191406,5.5566406 C 3.8542661,5.350189 4.1237917,5.1929449 4.4277344,5.0839844 4.7374118,4.9750238 5.0580085,4.9199219 5.390625,4.9199219 Z m 4.933594,0 c 0.389964,0 0.726809,0.067319 1.007812,0.1992187 0.281004,0.1261649 0.49335,0.3038125 0.636719,0.5332032 0.143369,0.2293906 0.214844,0.4866991 0.214844,0.7734374 0,0.5448029 -0.324628,1.0245969 -0.972656,1.4375 0.367024,0.172043 0.652924,0.3742497 0.859374,0.609375 0.206453,0.2351256 0.310547,0.5515668 0.310547,0.9472657 0,0.3268817 -0.08577,0.6168121 -0.257812,0.8691401 -0.166308,0.246596 -0.407244,0.440616 -0.722656,0.583985 -0.309678,0.137634 -0.671082,0.207031 -1.083985,0.207031 -0.6594976,0 -1.1617731,-0.142949 -1.5058591,-0.429687 -0.344086,-0.292473 -0.515625,-0.6783117 -0.515625,-1.1542972 0,-0.3268818 0.1040953,-0.6249973 0.3105469,-0.8945313 C 8.8119203,8.3320285 9.0631203,8.1053875 9.3613281,7.921875 9.0803246,7.7613015 8.8597922,7.569359 8.6992188,7.3457031 8.54438,7.1220472 8.4667969,6.8382266 8.4667969,6.4941406 c 0,-0.3039426 0.083692,-0.575546 0.25,-0.8164062 C 8.8888399,5.4368742 9.1154808,5.2510403 9.3964844,5.1191406 9.6832227,4.987241 9.9916021,4.9199219 10.324219,4.9199219 Z m 0,0.671875 c -0.303943,0 -0.5469565,0.077583 -0.730469,0.2324219 -0.1777778,0.1548386 -0.2675781,0.3610761 -0.2675781,0.6191406 0,0.2810035 0.097987,0.5015359 0.2929687,0.6621094 0.2007169,0.1548386 0.4927234,0.310005 0.8769534,0.4648437 0.550537,-0.2924731 0.826172,-0.6660941 0.826172,-1.1191406 0,-0.246595 -0.08785,-0.4488016 -0.265625,-0.609375 -0.177778,-0.1663083 -0.422745,-0.25 -0.732422,-0.25 z m -0.283203,2.640625 C 9.4503343,8.5363645 9.1542969,8.9385753 9.1542969,9.4375 c 0,0.2752688 0.095909,0.5060657 0.2851562,0.695312 0.1949821,0.183514 0.4890666,0.275391 0.8847659,0.275391 0.384229,0 0.674158,-0.08785 0.86914,-0.265625 0.200717,-0.1835123 0.300782,-0.4162619 0.300782,-0.6972655 0,-0.2121864 -0.06537,-0.389834 -0.197266,-0.5332031 C 11.17071,8.7687402 11.021652,8.6564586 10.849609,8.5761719 10.683301,8.4958851 10.413775,8.3815258 10.041016,8.2324219 Z"
       style="display:inline;opacity:0.5;fill:#808080;fill-opacity:1;stroke:none;stroke-width:0.17680639;stroke-miterlimit:4;stroke-dasharray:none;stroke-opacity:1"
       inkscape:connector-curvature="0" />
    <path
       id="path1090-3-6"
       d="m 0.64453125,8 v 2.144531 h -0.34375 A 8.0000001,8.0000001 0 0 0 8,16 8.0000001,8.0000001 0 0 0 15.707031,10.144531 H 15.355469 V 8 h -3.90625 c 0.248284,0.1418358 0.464818,0.2946745 0.621093,0.4726562 0.206453,0.2351256 0.310547,0.5515668 0.310547,0.9472657 0,0.3268817 -0.08577,0.6168121 -0.257812,0.8691401 -0.166308,0.246596 -0.407244,0.440616 -0.722656,0.583985 -0.309678,0.137634 -0.671082,0.207031 -1.083985,0.207031 -0.6594976,0 -1.1617731,-0.142949 -1.5058591,-0.429687 -0.344086,-0.292473 -0.515625,-0.6783117 -0.515625,-1.1542972 0,-0.3268818 0.1040953,-0.6249973 0.3105469,-0.8945313 C 8.7859181,8.3659758 9.0072643,8.1698692 9.2578125,8 H 6.9511719 C 6.7389718,8.3761431 6.487476,8.7296273 6.1914062,9.0585938 5.8817289,9.4026796 5.4835489,9.8130774 4.9960938,10.289062 h 2.4160156 l -0.033203,0.695313 H 3.6542969 V 10.693359 C 3.774727,10.567195 3.9727781,10.371221 4.2480469,10.107422 4.7068282,9.66011 5.0805738,9.2762251 5.3730469,8.9550781 5.6421826,8.6595566 5.872065,8.3392264 6.0683594,8 Z M 10.041016,8.2324219 C 9.4503343,8.5363645 9.1542969,8.9385753 9.1542969,9.4375 c 0,0.2752688 0.095909,0.5060657 0.2851562,0.695312 0.1949821,0.183514 0.4890666,0.275391 0.8847659,0.275391 0.384229,0 0.674158,-0.08785 0.86914,-0.265625 0.200717,-0.1835123 0.300782,-0.4162619 0.300782,-0.6972655 0,-0.2121864 -0.06537,-0.389834 -0.197266,-0.5332031 C 11.17071,8.7687402 11.021652,8.6564586 10.849609,8.5761719 10.683301,8.4958851 10.413775,8.3815258 10.041016,8.2324219 Z"
       style="display:inline;fill:#808080;fill-opacity:1;stroke:none;stroke-width:0.17680639;stroke-miterlimit:4;stroke-dasharray:none;stroke-opacity:1"
       inkscape:connector-curvature="0" />
  </g>
</svg>

<?xml version="1.0" encoding="UTF-8" standalone="no"?>
<svg
   xmlns:dc="http://purl.org/dc/elements/1.1/"
   xmlns:cc="http://creativecommons.org/ns#"
   xmlns:rdf="http://www.w3.org/1999/02/22-rdf-syntax-ns#"
   xmlns:svg="http://www.w3.org/2000/svg"
   xmlns="http://www.w3.org/2000/svg"
   xmlns:sodipodi="http://sodipodi.sourceforge.net/DTD/sodipodi-0.dtd"
   xmlns:inkscape="http://www.inkscape.org/namespaces/inkscape"
   height="16"
   width="16"
   version="1.1"
   id="svg4"
   sodipodi:docname="x-office-calendar-symbolic.svg"
   inkscape:version="0.92.3 (2405546, 2018-03-11)">
  <metadata
     id="metadata10">
    <rdf:RDF>
      <cc:Work
         rdf:about="">
        <dc:format>image/svg+xml</dc:format>
        <dc:type
           rdf:resource="http://purl.org/dc/dcmitype/StillImage" />
      </cc:Work>
    </rdf:RDF>
  </metadata>
  <defs
     id="defs8">
    <clipPath
       clipPathUnits="userSpaceOnUse"
       id="clipPath1158">
      <circle
         style="display:inline;fill:#ffe680;fill-opacity:1;stroke:none;stroke-width:2.74049902;stroke-miterlimit:4;stroke-dasharray:none;stroke-opacity:1"
         id="circle1160"
         cx="124"
         cy="128"
         r="124" />
    </clipPath>
    <clipPath
       clipPathUnits="userSpaceOnUse"
       id="clipPath1155">
      <circle
         style="display:inline;fill:#003059;fill-opacity:1;stroke:none;stroke-width:2.74049902;stroke-miterlimit:4;stroke-dasharray:none;stroke-opacity:1"
         id="circle1157"
         cx="-331.61942"
         cy="199.17514"
         r="124" />
    </clipPath>
    <clipPath
       clipPathUnits="userSpaceOnUse"
       id="clipPath1155-6">
      <circle
         style="display:inline;fill:#003059;fill-opacity:1;stroke:none;stroke-width:2.74049902;stroke-miterlimit:4;stroke-dasharray:none;stroke-opacity:1"
         id="circle1157-2"
         cx="-331.61942"
         cy="199.17514"
         r="124" />
    </clipPath>
    <clipPath
       clipPathUnits="userSpaceOnUse"
       id="clipPath1155-1">
      <circle
         style="display:inline;fill:#003059;fill-opacity:1;stroke:none;stroke-width:2.74049902;stroke-miterlimit:4;stroke-dasharray:none;stroke-opacity:1"
         id="circle1157-27"
         cx="-331.61942"
         cy="199.17514"
         r="124" />
    </clipPath>
    <clipPath
       clipPathUnits="userSpaceOnUse"
       id="clipPath1155-9">
      <circle
         style="display:inline;fill:#003059;fill-opacity:1;stroke:none;stroke-width:2.74049902;stroke-miterlimit:4;stroke-dasharray:none;stroke-opacity:1"
         id="circle1157-3"
         cx="-331.61942"
         cy="199.17514"
         r="124" />
    </clipPath>
    <clipPath
       clipPathUnits="userSpaceOnUse"
       id="clipPath1158-1">
      <circle
         style="display:inline;fill:#ffe680;fill-opacity:1;stroke:none;stroke-width:2.74049902;stroke-miterlimit:4;stroke-dasharray:none;stroke-opacity:1"
         id="circle1160-8"
         cx="124"
         cy="128"
         r="124" />
    </clipPath>
    <clipPath
       clipPathUnits="userSpaceOnUse"
       id="clipPath1158-1-2">
      <circle
         style="display:inline;fill:#ffe680;fill-opacity:1;stroke:none;stroke-width:2.74049902;stroke-miterlimit:4;stroke-dasharray:none;stroke-opacity:1"
         id="circle1160-8-0"
         cx="124"
         cy="128"
         r="124" />
    </clipPath>
  </defs>
  <sodipodi:namedview
     pagecolor="#ffffff"
     bordercolor="#666666"
     borderopacity="1"
     objecttolerance="10"
     gridtolerance="10"
     guidetolerance="10"
     inkscape:pageopacity="0"
     inkscape:pageshadow="2"
     inkscape:window-width="1920"
     inkscape:window-height="1539"
     id="namedview6"
     showgrid="false"
     inkscape:zoom="41.7193"
     inkscape:cx="14.421132"
     inkscape:cy="5.2303299"
     inkscape:window-x="1920"
     inkscape:window-y="27"
     inkscape:window-maximized="0"
     inkscape:current-layer="svg4" />
  <path
     style="display:inline;fill:#808080;fill-opacity:1;stroke:none;stroke-width:0.17680639;stroke-miterlimit:4;stroke-dasharray:none;stroke-opacity:1;opacity:0.5"
     d="M 8 0 A 8 8 0 0 0 0.29296875 5.8554688 L 0.64453125 5.8554688 L 0.64453125 10.144531 L 0.30078125 10.144531 A 8 8 0 0 0 8 16 A 8 8 0 0 0 15.707031 10.144531 L 15.355469 10.144531 L 15.355469 5.8554688 L 15.699219 5.8554688 A 8 8 0 0 0 8 0 z M 5.390625 4.9199219 C 6.0099798 4.9199219 6.4836652 5.0832746 6.8105469 5.4101562 C 7.1431633 5.7313032 7.3085938 6.1825073 7.3085938 6.7617188 C 7.3085937 7.1516829 7.200343 7.5477851 6.9824219 7.9492188 C 6.7645007 8.3449176 6.5010836 8.7145077 6.1914062 9.0585938 C 5.8817289 9.4026796 5.4835489 9.8130774 4.9960938 10.289062 L 7.4121094 10.289062 L 7.3789062 10.984375 L 3.6542969 10.984375 L 3.6542969 10.693359 C 3.774727 10.567195 3.9727781 10.371221 4.2480469 10.107422 C 4.7068282 9.66011 5.0805738 9.2762251 5.3730469 8.9550781 C 5.66552 8.6339312 5.9165953 8.2868223 6.1230469 7.9140625 C 6.3352332 7.5355679 6.4414063 7.1619469 6.4414062 6.7949219 C 6.4414063 6.4336316 6.3393887 6.149811 6.1386719 5.9433594 C 5.937955 5.7369078 5.6642739 5.6347656 5.3144531 5.6347656 C 4.8614066 5.6347656 4.4081247 5.8124132 3.9550781 6.1679688 L 3.6191406 5.5566406 C 3.8542661 5.350189 4.1237917 5.1929449 4.4277344 5.0839844 C 4.7374118 4.9750238 5.0580085 4.9199219 5.390625 4.9199219 z M 10.324219 4.9199219 C 10.714183 4.9199219 11.051028 4.987241 11.332031 5.1191406 C 11.613035 5.2453055 11.825381 5.4229531 11.96875 5.6523438 C 12.112119 5.8817344 12.183594 6.1390429 12.183594 6.4257812 C 12.183594 6.9705841 11.858966 7.4503781 11.210938 7.8632812 C 11.577962 8.0353242 11.863862 8.2375309 12.070312 8.4726562 C 12.276765 8.7077818 12.380859 9.024223 12.380859 9.4199219 C 12.380859 9.7468036 12.29509 10.036734 12.123047 10.289062 C 11.956739 10.535658 11.715803 10.729678 11.400391 10.873047 C 11.090713 11.010681 10.729309 11.080078 10.316406 11.080078 C 9.6569084 11.080078 9.1546329 10.937129 8.8105469 10.650391 C 8.4664609 10.357918 8.2949219 9.9720793 8.2949219 9.4960938 C 8.2949219 9.169212 8.3990172 8.8710965 8.6054688 8.6015625 C 8.8119203 8.3320285 9.0631203 8.1053875 9.3613281 7.921875 C 9.0803246 7.7613015 8.8597922 7.569359 8.6992188 7.3457031 C 8.54438 7.1220472 8.4667969 6.8382266 8.4667969 6.4941406 C 8.4667969 6.190198 8.5504886 5.9185946 8.7167969 5.6777344 C 8.8888399 5.4368742 9.1154808 5.2510403 9.3964844 5.1191406 C 9.6832227 4.987241 9.9916021 4.9199219 10.324219 4.9199219 z M 10.324219 5.5917969 C 10.020276 5.5917969 9.7772625 5.6693801 9.59375 5.8242188 C 9.4159722 5.9790574 9.3261719 6.1852949 9.3261719 6.4433594 C 9.3261719 6.7243629 9.4241586 6.9448953 9.6191406 7.1054688 C 9.8198575 7.2603074 10.111864 7.4154738 10.496094 7.5703125 C 11.046631 7.2778394 11.322266 6.9042184 11.322266 6.4511719 C 11.322266 6.2045769 11.234418 6.0023703 11.056641 5.8417969 C 10.878863 5.6754886 10.633896 5.5917969 10.324219 5.5917969 z M 10.041016 8.2324219 C 9.4503343 8.5363645 9.1542969 8.9385753 9.1542969 9.4375 C 9.1542969 9.7127688 9.2502058 9.9435657 9.4394531 10.132812 C 9.6344352 10.316326 9.9285197 10.408203 10.324219 10.408203 C 10.708448 10.408203 10.998377 10.320356 11.193359 10.142578 C 11.394076 9.9590657 11.494141 9.7263161 11.494141 9.4453125 C 11.494141 9.2331261 11.428775 9.0554785 11.296875 8.9121094 C 11.17071 8.7687402 11.021652 8.6564586 10.849609 8.5761719 C 10.683301 8.4958851 10.413775 8.3815258 10.041016 8.2324219 z "
     id="path1090" />
  <path
     style="display:inline;fill:#808080;fill-opacity:1;stroke:none;stroke-width:0.17680639;stroke-miterlimit:4;stroke-dasharray:none;stroke-opacity:1"
     d="M 0.64453125 8 L 0.64453125 10.144531 L 0.30078125 10.144531 A 8.0000001 8.0000001 0 0 0 8 16 A 8.0000001 8.0000001 0 0 0 15.707031 10.144531 L 15.355469 10.144531 L 15.355469 8 L 11.449219 8 C 11.697503 8.1418358 11.914037 8.2946745 12.070312 8.4726562 C 12.276765 8.7077818 12.380859 9.024223 12.380859 9.4199219 C 12.380859 9.7468036 12.29509 10.036734 12.123047 10.289062 C 11.956739 10.535658 11.715803 10.729678 11.400391 10.873047 C 11.090713 11.010681 10.729309 11.080078 10.316406 11.080078 C 9.6569084 11.080078 9.1546329 10.937129 8.8105469 10.650391 C 8.4664609 10.357918 8.2949219 9.9720793 8.2949219 9.4960938 C 8.2949219 9.169212 8.3990172 8.8710965 8.6054688 8.6015625 C 8.7859181 8.3659758 9.0072643 8.1698692 9.2578125 8 L 6.9511719 8 C 6.7389718 8.3761431 6.487476 8.7296273 6.1914062 9.0585938 C 5.8817289 9.4026796 5.4835489 9.8130774 4.9960938 10.289062 L 7.4121094 10.289062 L 7.3789062 10.984375 L 3.6542969 10.984375 L 3.6542969 10.693359 C 3.774727 10.567195 3.9727781 10.371221 4.2480469 10.107422 C 4.7068282 9.66011 5.0805738 9.2762251 5.3730469 8.9550781 C 5.6421826 8.6595566 5.872065 8.3392264 6.0683594 8 L 0.64453125 8 z M 10.041016 8.2324219 C 9.4503343 8.5363645 9.1542969 8.9385753 9.1542969 9.4375 C 9.1542969 9.7127688 9.2502058 9.9435657 9.4394531 10.132812 C 9.6344352 10.316326 9.9285197 10.408203 10.324219 10.408203 C 10.708448 10.408203 10.998377 10.320356 11.193359 10.142578 C 11.394076 9.9590657 11.494141 9.7263161 11.494141 9.4453125 C 11.494141 9.2331261 11.428775 9.0554785 11.296875 8.9121094 C 11.17071 8.7687402 11.021652 8.6564586 10.849609 8.5761719 C 10.683301 8.4958851 10.413775 8.3815258 10.041016 8.2324219 z "
     id="path1090-3-6" />
</svg>
